X:15
T:Maggie in the Wood
M:4/4
L:1/4
K:G Major
B/A/|GD GA|Be eg/e/|dB AG/A/|BA AB/A/|GD GA|Be eg/e/|
dB AB/A/|G2 G:| e/f/|gf ed|ef ge|dB AG/A/| 
BA A|1 e/f/|gf ed|ef ge|dB AB/A/|
G2 G:|2 B/A/|GD GA|Be eg/e/|dB AB/A/|G2 G ||
<end>
<start>
